src/assets/icons/months,simple,january-1.svg

<svg width="48" height="48" viewBox="0 0 48 48" fill="none" xmlns="http://www.w3.org/2000/svg">
<rect opacity="0.2" x="5" y="5" width="38" height="38" rx="4" fill="black"/>
<path d="M5 13C5 9.22876 5 7.34315 6.17157 6.17157C7.34315 5 9.22876 5 13 5H35C38.7712 5 40.6569 5 41.8284 6.17157C43 7.34315 43 9.22876 43 13V15H5V13Z" fill="black"/>
<path d="M13.2408 23.3636V31.4773C13.2351 32.5966 12.7351 33.1875 11.826 33.1875C10.968 33.1875 10.4112 32.6534 10.3942 31.7273H7.94531C7.93395 34.0511 9.59304 35.1591 11.701 35.1591C14.0589 35.1591 15.6669 33.733 15.6726 31.4773V23.3636H13.2408ZM19.7124 35L20.576 32.3466H24.7749L25.6385 35H28.2749L24.2635 23.3636H21.093L17.076 35H19.7124ZM21.201 30.4261L22.6328 26.0227H22.7237L24.1555 30.4261H21.201ZM39.4084 23.3636H36.9595V30.6818H36.8572L31.8345 23.3636H29.6754V35H32.1357V27.6761H32.2209L37.2834 35H39.4084V23.3636Z" fill="black"/>
</svg>

<svg xmlns="http://www.w3.org/2000/svg" width="48" height="48" fill="none" viewBox="0 0 48 48">
  <rect width="38" height="38" x="5" y="5" fill="#000" opacity=".2" rx="4"/>
  <path fill="#000" d="M5 13c0-3.771 0-5.657 1.172-6.828C7.343 5 9.229 5 13 5h22c3.771 0 5.657 0 6.828 1.172C43 7.343 43 9.229 43 13v2H5v-2zM13.24 23.364v8.113c-.005 1.12-.505 1.71-1.414 1.71-.858 0-1.415-.534-1.432-1.46H7.945c-.011 2.324 1.648 3.432 3.756 3.432 2.358 0 3.966-1.426 3.972-3.682v-8.113H13.24zM19.713 35l.864-2.653h4.199L25.639 35h2.636l-4.011-11.636h-3.171L17.076 35h2.636zm1.489-4.574l1.432-4.403h.09l1.433 4.403H21.2zm18.207-7.062H36.96v7.318h-.102l-5.023-7.318h-2.159V35h2.46v-7.324h.086L37.283 35h2.125V23.364z"/>
</svg>
